img/road-icon.svg

<svg width="31" height="50" viewBox="0 0 31 50" fill="none" xmlns="http://www.w3.org/2000/svg">
      <path fill-rule="evenodd" clip-rule="evenodd" d="M15.3113 15.508C16.0047 16.439 17.2427 17.1217 19.2946 16.8469C22.8975 16.3644 25.6855 17.4456 27.3582 19.5167C28.9898 21.5368 29.3643 24.2642 28.6618 26.7102C27.9519 29.1819 26.1264 31.4474 23.2582 32.583C20.3942 33.717 16.6671 33.6599 12.216 31.8717C8.34941 30.3183 6.12582 30.5701 4.92916 31.2703C3.76165 31.9534 3.07789 33.3612 3.00606 35.3528C2.93489 37.3258 3.49503 39.5733 4.45802 41.3899C5.45483 43.2703 6.67633 44.3246 7.69565 44.5294L7.10483 47.4706C4.76488 47.0006 2.95819 44.9658 1.80743 42.795C0.622849 40.5604 -0.0839752 37.7947 0.00800597 35.2447C0.0993159 32.7132 1.00882 30.0882 3.41418 28.6809C5.79039 27.2906 9.11928 27.3945 13.3343 29.0879C17.2814 30.6736 20.189 30.5716 22.1539 29.7937C24.1147 29.0173 25.3125 27.5041 25.7784 25.882C26.2516 24.2343 25.9543 22.5531 25.0244 21.4017C24.1357 20.3013 22.4726 19.4481 19.6928 19.8203C16.7058 20.2203 14.3325 19.216 12.9054 17.3002C11.5292 15.4527 11.1937 12.9741 11.7342 10.6548C12.28 8.31217 13.7384 6.01641 16.1216 4.4575C18.5164 2.89101 21.7478 2.12943 25.744 2.67673L25.3369 5.64898C21.9426 5.1841 19.4632 5.85647 17.7639 6.96808C16.0529 8.08727 15.0338 9.71377 14.6559 11.3356C14.2725 12.9807 14.5669 14.5087 15.3113 15.508Z" fill="black"/>
      <path fill-rule="evenodd" clip-rule="evenodd" d="M25.5133 4.36101C25.0533 4.298 24.6067 4.2542 24.1736 4.22836L24.1974 3.82907C24.641 3.85553 25.0978 3.90036 25.5676 3.96471L25.5133 4.36101ZM21.487 4.30828C20.5394 4.42942 19.6762 4.6483 18.896 4.9451L18.7538 4.57124C19.5647 4.26275 20.4587 4.03648 21.4363 3.91151L21.487 4.30828ZM16.5651 6.22218C15.8251 6.77927 15.2089 7.42361 14.7144 8.1187L14.3885 7.88681C14.9064 7.15888 15.5511 6.4848 16.3245 5.90261L16.5651 6.22218ZM13.5383 10.492C13.2674 11.3689 13.1549 12.2601 13.1966 13.1098L12.7971 13.1294C12.753 12.2313 12.8721 11.2936 13.1561 10.374L13.5383 10.492ZM13.8617 15.6393C14.2706 16.4114 14.8632 17.0592 15.6351 17.5108L15.4331 17.856C14.5921 17.364 13.9492 16.6592 13.5082 15.8265L13.8617 15.6393ZM19.4671 18.1354C20.0153 18.062 20.5366 18.0289 21.031 18.0327L21.0279 18.4327C20.5535 18.429 20.051 18.4607 19.5202 18.5318C19.0279 18.5978 18.5606 18.6198 18.1189 18.6016L18.1354 18.202C18.5522 18.2191 18.9962 18.1984 19.4671 18.1354ZM24.0887 18.633C25.1283 19.0834 25.9437 19.7615 26.5346 20.5791L26.2104 20.8134C25.6614 20.0538 24.9029 19.4217 23.9297 19.0001L24.0887 18.633ZM27.6511 23.5C27.7732 24.5216 27.6663 25.5879 27.334 26.6067L26.9537 26.4827C27.2685 25.5175 27.3689 24.5097 27.2539 23.5475L27.6511 23.5ZM8.6936 29.5255C7.6425 29.376 6.73199 29.3912 5.94909 29.5384L5.8752 29.1452C6.70845 28.9886 7.66369 28.975 8.74993 29.1295L8.6936 29.5255ZM25.7737 29.3109C25.1083 30.0526 24.2724 30.6904 23.2687 31.1628L23.0984 30.8008C24.0534 30.3514 24.846 29.746 25.4759 29.0438L25.7737 29.3109ZM12.7006 30.6654C12.2456 30.4826 11.8073 30.3217 11.3851 30.1815L11.5111 29.8019C11.9416 29.9448 12.3876 30.1086 12.8497 30.2942C13.3381 30.4904 13.8142 30.6632 14.2779 30.8138L14.1543 31.1943C13.6817 31.0407 13.1971 30.8648 12.7006 30.6654ZM3.53944 30.6826C2.87649 31.2772 2.40685 32.0545 2.10782 32.95L1.72841 32.8233C2.04526 31.8745 2.5488 31.0338 3.27236 30.3848L3.53944 30.6826ZM20.2685 31.9792C19.3197 32.08 18.2835 32.0628 17.161 31.9044L17.2169 31.5084C18.3096 31.6625 19.3128 31.6785 20.2263 31.5814L20.2685 31.9792ZM1.70004 35.6573C1.69718 36.555 1.8044 37.4873 2.00519 38.4081L1.61437 38.4934C1.40806 37.5472 1.29708 36.5858 1.30005 35.6561L1.70004 35.6573ZM2.8538 41.0486C3.23517 41.9309 3.69747 42.748 4.22022 43.4495L3.89949 43.6885C3.35588 42.959 2.87868 42.1143 2.48664 41.2074L2.8538 41.0486ZM6.19928 45.3144C6.60168 45.5524 7.01675 45.719 7.43962 45.8039L7.36084 46.1961C6.88822 46.1012 6.43131 45.9163 5.99569 45.6588L6.19928 45.3144Z" fill="white"/>
      <path d="M11.5 46.5C11.5 48.433 9.933 50 8 50C6.067 50 4.5 48.433 4.5 46.5C4.5 44.567 6.067 43 8 43C9.933 43 11.5 44.567 11.5 46.5Z" fill="#C4C4C4"/>
      <path d="M9.5 46.5C9.5 47.3284 8.82843 48 8 48C7.17157 48 6.5 47.3284 6.5 46.5C6.5 45.6716 7.17157 45 8 45C8.82843 45 9.5 45.6716 9.5 46.5Z" fill="white"/>
      <path d="M30.5 3.5C30.5 5.433 28.933 7 27 7C25.067 7 23.5 5.433 23.5 3.5C23.5 1.567 25.067 0 27 0C28.933 0 30.5 1.567 30.5 3.5Z" fill="#C4C4C4"/>
      <path d="M28.5 3.5C28.5 4.32843 27.8284 5 27 5C26.1716 5 25.5 4.32843 25.5 3.5C25.5 2.67157 26.1716 2 27 2C27.8284 2 28.5 2.67157 28.5 3.5Z" fill="white"/>
     </svg>

<svg width="31" height="50" fill="none" xmlns="http://www.w3.org/2000/svg"><path fill-rule="evenodd" clip-rule="evenodd" d="M15.3113 15.508c.6934.931 1.9314 1.6137 3.9833 1.3389 3.6029-.4825 6.3909.5987 8.0636 2.6698 1.6316 2.0201 2.0061 4.7475 1.3036 7.1935-.7099 2.4717-2.5354 4.7372-5.4036 5.8728-2.864 1.134-6.5911 1.0769-11.0422-.7113-3.8666-1.5534-6.0902-1.3016-7.2868-.6014-1.1675.6831-1.8513 2.0909-1.9231 4.0825-.0712 1.973.489 4.2205 1.452 6.0371.9967 1.8804 2.2182 2.9347 3.2375 3.1395l-.5908 2.9412c-2.34-.47-4.1466-2.5048-5.2974-4.6756C.6228 40.5604-.084 37.7947.008 35.2447c.0913-2.5315 1.0008-5.1565 3.4062-6.5638 2.3762-1.3903 5.705-1.2864 9.9201.407 3.9471 1.5857 6.8547 1.4837 8.8196.7058 1.9608-.7764 3.1586-2.2896 3.6245-3.9117.4732-1.6477.1759-3.3289-.754-4.4803-.8887-1.1004-2.5518-1.9536-5.3316-1.5814-2.987.4-5.3603-.6043-6.7874-2.5201-1.3762-1.8475-1.7117-4.3261-1.1712-6.6454.5458-2.3426 2.0042-4.6384 4.3874-6.1973 2.3948-1.5665 5.6262-2.328 9.6224-1.7808l-.4071 2.9723c-3.3943-.4649-5.8737.2075-7.573 1.319-1.711 1.1193-2.7301 2.7458-3.108 4.3676-.3834 1.6451-.089 3.1731.6554 4.1724z" fill="#000"/><path fill-rule="evenodd" clip-rule="evenodd" d="M25.5133 4.361c-.46-.063-.9066-.1068-1.3397-.1326l.0238-.3993c.4436.0264.9004.0713 1.3702.1356l-.0543.3963zm-4.0263-.0527c-.9476.1211-1.8108.34-2.591.6368l-.1422-.3739c.8109-.3085 1.7049-.5347 2.6825-.6597l.0507.3968zm-4.9219 1.9139c-.74.557-1.3562 1.2014-1.8507 1.8965l-.3259-.2319c.5179-.728 1.1626-1.402 1.936-1.9842l.2406.3196zm-3.0268 4.2698c-.2709.8769-.3834 1.7681-.3417 2.6178l-.3995.0196c-.0441-.8981.075-1.8358.359-2.7554l.3822.118zm.3234 5.1473c.4089.7721 1.0015 1.4199 1.7734 1.8715l-.202.3452c-.841-.492-1.4839-1.1968-1.9249-2.0295l.3535-.1872zm5.6054 2.4961c.5482-.0734 1.0695-.1065 1.5639-.1027l-.0031.4c-.4744-.0037-.9769.028-1.5077.0991-.4923.066-.9596.088-1.4013.0698l.0165-.3996c.4168.0171.8608-.0036 1.3317-.0666zm4.6216.4976c1.0396.4504 1.855 1.1285 2.4459 1.9461l-.3242.2343c-.549-.7596-1.3075-1.3917-2.2807-1.8133l.159-.3671zm3.5624 4.867c.1221 1.0216.0152 2.0879-.3171 3.1067l-.3803-.124c.3148-.9652.4152-1.973.3002-2.9352l.3972-.0475zM8.6936 29.5255c-1.0511-.1495-1.9616-.1343-2.7445.0129l-.0739-.3932c.8332-.1566 1.7885-.1702 2.8747-.0157l-.0563.396zm17.0801-.2146c-.6654.7417-1.5013 1.3795-2.505 1.8519l-.1703-.362c.955-.4494 1.7476-1.0548 2.3775-1.757l.2978.2671zm-13.0731 1.3545a22.8446 22.8446 0 0 0-1.3155-.4839l.126-.3796c.4305.1429.8765.3067 1.3386.4923.4884.1962.9645.369 1.4282.5196l-.1236.3805a22.875 22.875 0 0 1-1.4537-.5289zm-9.1612.0172c-.663.5946-1.1326 1.3719-1.4316 2.2674l-.3794-.1267c.3169-.9488.8204-1.7895 1.544-2.4385l.267.2978zm16.7291 1.2966c-.9488.1008-1.985.0836-3.1075-.0748l.0559-.396c1.0927.1541 2.0959.1701 3.0094.073l.0422.3978zM1.7 35.6573c-.0028.8977.1044 1.83.3052 2.7508l-.3908.0853c-.2063-.9462-.3173-1.9076-.3144-2.8373l.4.0012zm1.1538 5.3913c.3814.8823.8437 1.6994 1.3664 2.4009l-.3207.239c-.5436-.7295-1.0208-1.5742-1.4129-2.4811l.3672-.1588zm3.3455 4.2658c.4024.238.8175.4046 1.2403.4895l-.0788.3922c-.4726-.0949-.9295-.2798-1.3651-.5373l.2036-.3444z" fill="#fff"/><path d="M11.5 46.5c0 1.933-1.567 3.5-3.5 3.5s-3.5-1.567-3.5-3.5S6.067 43 8 43s3.5 1.567 3.5 3.5z" fill="#C4C4C4"/><path d="M9.5 46.5c0 .8284-.6716 1.5-1.5 1.5s-1.5-.6716-1.5-1.5S7.1716 45 8 45s1.5.6716 1.5 1.5z" fill="#fff"/><path d="M30.5 3.5C30.5 5.433 28.933 7 27 7s-3.5-1.567-3.5-3.5S25.067 0 27 0s3.5 1.567 3.5 3.5z" fill="#C4C4C4"/><path d="M28.5 3.5c0 .8284-.6716 1.5-1.5 1.5s-1.5-.6716-1.5-1.5S26.1716 2 27 2s1.5.6716 1.5 1.5z" fill="#fff"/></svg>
